nextflow/nextflow_logo_color.svg

<svg width="1781" height="500" viewBox="0 0 1781 500" fill="none" xmlns="http://www.w3.org/2000/svg">
<path d="M125 171.1C164.5 173.7 196.2 205.4 198.6 244.9H244.7C242.2 179.9 190 127.7 125 125V171.1Z" fill="#0DC09D"/>
<path d="M198.9 255.4C196.3 294.9 164.5 326.5 125 328.9V375C190.1 372.4 242.3 320.3 245 255.4H198.9Z" fill="#0DC09D"/>
<path d="M301.4 244.6C304 205.1 335.8 173.5 375.3 171.1V125C310.2 127.6 258 179.7 255.3 244.6H301.4Z" fill="#0DC09D"/>
<path d="M375.3 328.9C335.8 326.3 304.1 294.6 301.7 255.1H255.6C258.2 320.1 310.4 372.3 375.4 375V328.9H375.3Z" fill="#0DC09D"/>
<path d="M455.5 329.5V171.1H486.2V196H491.1C493.9 189.9 499 184.2 506.3 179C513.6 173.7 524.5 171.1 538.9 171.1C550.3 171.1 560.4 173.6 569.2 178.7C578 183.8 585 190.9 590 200.1C595.1 209.3 597.6 220.4 597.6 233.4V329.5H566.2V235.9C566.2 222.9 563 213.4 556.5 207.2C550 201 541.1 197.9 529.7 197.9C516.7 197.9 506.3 202.2 498.5 210.7C490.7 219.2 486.8 231.6 486.8 247.8V329.6L455.5 329.5Z" fill="#201637"/>
<path d="M1204.9 329.601V125.301H1236.3V329.601H1204.9Z" fill="#201637"/>
<path d="M1343.9 329.599C1328.9 329.599 1315.5 326.499 1303.9 320.299C1292.2 314.099 1283.1 305.199 1276.4 293.699C1269.7 282.199 1266.4 268.499 1266.4 252.699V248.099C1266.4 232.299 1269.7 218.699 1276.4 207.199C1283.1 195.699 1292.3 186.899 1303.9 180.599C1315.5 174.299 1328.9 171.199 1343.9 171.199C1358.9 171.199 1372.3 174.299 1384.1 180.599C1395.9 186.899 1405.1 195.799 1411.8 207.199C1418.5 218.699 1421.8 232.299 1421.8 248.099V252.699C1421.8 268.499 1418.5 282.199 1411.8 293.699C1405.1 305.299 1395.9 314.099 1384.1 320.299C1372.3 326.499 1359 329.599 1343.9 329.599ZM1343.9 301.599C1357.7 301.599 1368.9 297.199 1377.5 288.399C1386.1 279.599 1390.4 267.399 1390.4 251.799V248.999C1390.4 233.399 1386.1 221.199 1377.6 212.399C1369.1 203.599 1357.8 199.199 1343.8 199.199C1329.8 199.199 1319.1 203.599 1310.5 212.399C1301.9 221.199 1297.6 233.399 1297.6 248.999V251.699C1297.6 267.299 1301.9 279.499 1310.5 288.299C1319.2 297.199 1330.3 301.599 1343.9 301.599Z" fill="#201637"/>
<path d="M1464.2 303.299L1442.9 171.199H1474.3L1493.2 308.599H1498.1L1519.5 196.099C1522.3 181.599 1534.9 171.199 1549.6 171.199C1564.4 171.199 1577 181.699 1579.8 196.199L1601 308.599H1605.9L1624.8 171.199H1656.2L1634.9 303.299C1632.5 318.499 1619.3 329.599 1604 329.599C1588.9 329.599 1576 318.899 1573.2 304.099L1552.1 192.499H1547.2L1526 304.099C1523.2 318.899 1510.3 329.599 1495.2 329.599C1479.8 329.599 1466.7 318.399 1464.2 303.299Z" fill="#201637"/>
<path d="M1106.5 133.801C1101.1 139.301 1098.4 146.601 1098.4 155.801V329.701H1129.9V197.801H1174.9V171.201H1153.2L1135.5 188.901H1130V160.801C1130 154.701 1132.9 151.601 1138.9 151.601H1174.9V125.301H1128.8C1119.3 125.501 1111.9 128.301 1106.5 133.801Z" fill="#201637"/>
<path d="M1024.8 293.501V210.301H993.3V299.001C993.3 308.201 996 315.501 1001.4 321.001C1006.8 326.501 1014.1 329.201 1023.3 329.201H1064.9V302.601H1033.4C1027.7 302.701 1024.8 299.601 1024.8 293.501Z" fill="#201637"/>
<path d="M836 286.6C827.3 297 814.4 302.1 800.9 302.1H705.4C692.8 302.1 682.2 298.2 673.8 290.3C673.3 289.8 672.8 289.3 672.3 288.8C671.8 288.3 671.3 287.8 670.8 287.2C669.7 285.9 668.6 284.5 667.7 283.1C663.6 276.9 661.2 269.6 660.6 261.1C660.5 260.3 660.5 259.5 660.5 258.6H776.4V246.7C776.4 231.4 773.3 218.1 767.2 206.7C761.1 195.3 752.6 186.4 741.7 180C730.8 173.6 718.1 170.4 703.6 170.4C689.1 170.4 675.7 173.6 664.5 180.2C658.9 183.5 653.9 187.3 649.5 191.9C648.9 192.5 648.4 193 647.9 193.6C646.3 195.4 644.8 197.2 643.4 199.1C641.5 201.7 639.7 204.4 638.1 207.3C631.7 218.9 628.5 232.5 628.5 248.2V251.9C628.5 267.6 631.7 281.2 638.1 292.8C644.5 304.4 653.4 313.4 664.8 319.8C676.2 326.2 689.6 329.4 704.8 329.4H798.3C806.8 329.4 824.7 327.9 835.3 321.9C847.1 315.3 854.3 307.3 866.3 293.1L870.8 286.6L853.6 262.2L836 286.6ZM660.7 234.6C661 232.5 661.4 230.5 661.9 228.6C662.4 226.7 663 224.8 663.7 223C666.1 217.1 669.6 212.1 674.2 208C681.6 201.5 691.3 198.2 703.1 198.2C714.9 198.2 724.5 201.5 731.8 208C739.1 214.5 743.3 223.4 744.3 234.6H681.3L665.2 250.7H659.9C660.1 246 660.1 240.1 660.7 234.6Z" fill="#201637"/>
<path d="M1024.8 170.8V125H993.3V170.8H963.7C955.2 170.8 937.3 172.3 926.7 178.3C914.9 184.9 905.4 193.4 893.5 207.6L880.3 225.7C874.8 217.7 870.3 211.3 868.2 208.4C857.5 193.3 847 185.4 835.2 178.8C824.6 172.9 807.7 171.3 799.2 171.3H793.3V198.8H801.8C815.4 198.8 827.2 203.9 835.9 214.3L861.6 251.3L861.5 251.5L877.2 273.8L890.5 293C902.4 307.2 912 315.7 923.7 322.3C934.3 328.2 952.2 329.8 960.7 329.8H966.6V302H958.1C944.5 302 931.4 297.2 923 286.5C919.8 282.4 908.4 266.2 896.7 249.4L921.8 213.6C930.5 203.2 947.4 197.2 960.9 197.2H1068.2V170.6L1024.8 170.8Z" fill="#201637"/>
</svg>

<?xml version="1.0" encoding="utf-8"?>
<!-- Generator: Adobe Illustrator 28.3.0, SVG Export Plug-In . SVG Version: 6.00 Build 0)  -->
<svg version="1.1" id="Layer_1" xmlns="http://www.w3.org/2000/svg" xmlns:xlink="http://www.w3.org/1999/xlink" x="0px" y="0px"
	 viewBox="0 0 1781 500" style="enable-background:new 0 0 1781 500;" xml:space="preserve">
<style type="text/css">
	.st0{fill:#0DC09D;}
	.st1{fill:#160F26;}
</style>
<path class="st0" d="M125,171.1c39.5,2.6,71.2,34.3,73.6,73.8h46.1C242.2,179.9,190,127.7,125,125V171.1z"/>
<path class="st0" d="M198.9,255.4c-2.6,39.5-34.4,71.1-73.9,73.5V375c65.1-2.6,117.3-54.7,120-119.6H198.9z"/>
<path class="st0" d="M301.4,244.6c2.6-39.5,34.4-71.1,73.9-73.5V125c-65.1,2.6-117.3,54.7-120,119.6H301.4z"/>
<path class="st0" d="M375.3,328.9c-39.5-2.6-71.2-34.3-73.6-73.8h-46.1c2.6,65,54.8,117.2,119.8,119.9V328.9z"/>
<path class="st1" d="M455.5,329.5V171.1h30.7v24.9h4.9c2.8-6.1,7.9-11.8,15.2-17c7.3-5.3,18.2-7.9,32.6-7.9
	c11.4,0,21.5,2.5,30.3,7.6c8.8,5.1,15.8,12.2,20.8,21.4c5.1,9.2,7.6,20.3,7.6,33.3v96.1h-31.4v-93.6c0-13-3.2-22.5-9.7-28.7
	c-6.5-6.2-15.4-9.3-26.8-9.3c-13,0-23.4,4.3-31.2,12.8c-7.8,8.5-11.7,20.9-11.7,37.1v81.8L455.5,329.5L455.5,329.5z"/>
<path class="st1" d="M1204.9,329.6V125.3h31.4v204.3H1204.9z"/>
<path class="st1" d="M1343.9,329.6c-15,0-28.4-3.1-40-9.3c-11.7-6.2-20.8-15.1-27.5-26.6s-10-25.2-10-41v-4.6
	c0-15.8,3.3-29.4,10-40.9s15.9-20.3,27.5-26.6s25-9.4,40-9.4c15,0,28.4,3.1,40.2,9.4c11.8,6.3,21,15.2,27.7,26.6
	c6.7,11.5,10,25.1,10,40.9v4.6c0,15.8-3.3,29.5-10,41c-6.7,11.6-15.9,20.4-27.7,26.6C1372.3,326.5,1359,329.6,1343.9,329.6z
	 M1343.9,301.6c13.8,0,25-4.4,33.6-13.2c8.6-8.8,12.9-21,12.9-36.6V249c0-15.6-4.3-27.8-12.8-36.6c-8.5-8.8-19.8-13.2-33.8-13.2
	c-14,0-24.7,4.4-33.3,13.2c-8.6,8.8-12.9,21-12.9,36.6v2.7c0,15.6,4.3,27.8,12.9,36.6C1319.2,297.2,1330.3,301.6,1343.9,301.6z"/>
<path class="st1" d="M1464.2,303.3l-21.3-132.1h31.4l18.9,137.4h4.9l21.4-112.5c2.8-14.5,15.4-24.9,30.1-24.9
	c14.8,0,27.4,10.5,30.2,25l21.2,112.4h4.9l18.9-137.4h31.4l-21.3,132.1c-2.4,15.2-15.6,26.3-30.9,26.3c-15.1,0-28-10.7-30.8-25.5
	l-21.1-111.6h-4.9L1526,304.1c-2.8,14.8-15.7,25.5-30.8,25.5C1479.8,329.6,1466.7,318.4,1464.2,303.3L1464.2,303.3z"/>
<path class="st1" d="M1106.5,133.8c-5.4,5.5-8.1,12.8-8.1,22v173.9h31.5V197.8h45v-26.6h-21.7l-17.7,17.7h-5.5v-28.1
	c0-6.1,2.9-9.2,8.9-9.2h36v-26.3h-46.1C1119.3,125.5,1111.9,128.3,1106.5,133.8z"/>
<path class="st1" d="M1024.8,293.5v-83.2h-31.5V299c0,9.2,2.7,16.5,8.1,22c5.4,5.5,12.7,8.2,21.9,8.2h41.6v-26.6h-31.5
	C1027.7,302.7,1024.8,299.6,1024.8,293.5L1024.8,293.5z"/>
<path class="st1" d="M836,286.6c-8.7,10.4-21.6,15.5-35.1,15.5h-95.5c-12.6,0-23.2-3.9-31.6-11.8c-0.5-0.5-1-1-1.5-1.5
	c-0.5-0.5-1-1-1.5-1.6c-1.1-1.3-2.2-2.7-3.1-4.1c-4.1-6.2-6.5-13.5-7.1-22c-0.1-0.8-0.1-1.6-0.1-2.5h115.9v-11.9
	c0-15.3-3.1-28.6-9.2-40c-6.1-11.4-14.6-20.3-25.5-26.7c-10.9-6.4-23.6-9.6-38.1-9.6c-14.5,0-27.9,3.2-39.1,9.8
	c-5.6,3.3-10.6,7.1-15,11.7c-0.6,0.6-1.1,1.1-1.6,1.7c-1.6,1.8-3.1,3.6-4.5,5.5c-1.9,2.6-3.7,5.3-5.3,8.2
	c-6.4,11.6-9.6,25.2-9.6,40.9v3.7c0,15.7,3.2,29.3,9.6,40.9c6.4,11.6,15.3,20.6,26.7,27c11.4,6.4,24.8,9.6,40,9.6h93.5
	c8.5,0,26.4-1.5,37-7.5c11.8-6.6,19-14.6,31-28.8l4.5-6.5l-17.2-24.4L836,286.6L836,286.6z M660.7,234.6c0.3-2.1,0.7-4.1,1.2-6
	c0.5-1.9,1.1-3.8,1.8-5.6c2.4-5.9,5.9-10.9,10.5-15c7.4-6.5,17.1-9.8,28.9-9.8s21.4,3.3,28.7,9.8c7.3,6.5,11.5,15.4,12.5,26.6h-63
	l-16.1,16.1h-5.3C660.1,246,660.1,240.1,660.7,234.6z"/>
<path class="st1" d="M1024.8,170.8V125h-31.5v45.8h-29.6c-8.5,0-26.4,1.5-37,7.5c-11.8,6.6-21.3,15.1-33.2,29.3l-13.2,18.1
	c-5.5-8-10-14.4-12.1-17.3c-10.7-15.1-21.2-23-33-29.6c-10.6-5.9-27.5-7.5-36-7.5h-5.9v27.5h8.5c13.6,0,25.4,5.1,34.1,15.5l25.7,37
	l-0.1,0.2l15.7,22.3l13.3,19.2c11.9,14.2,21.5,22.7,33.2,29.3c10.6,5.9,28.5,7.5,37,7.5h5.9V302h-8.5c-13.6,0-26.7-4.8-35.1-15.5
	c-3.2-4.1-14.6-20.3-26.3-37.1l25.1-35.8c8.7-10.4,25.6-16.4,39.1-16.4h107.3v-26.6L1024.8,170.8L1024.8,170.8z"/>
</svg>
